packages/ndla-icons/svg/contentType/learning-path-quiz.svg

<svg height="24" viewBox="0 0 24 24" width="24" xmlns="http://www.w3.org/2000/svg" data-license="Apache License 2.0" data-source="Material Design">
    <path d="M10,19H13V22H10V19M12,2C17.35,2.22 19.68,7.62 16.5,11.67C15.67,12.67 14.33,13.33 13.67,14.17C13,15 13,16 13,17H10C10,15.33 10,13.92 10.67,12.92C11.33,11.92 12.67,11.33 13.5,10.67C15.92,8.43 15.32,5.26 12,5A3,3 0 0,0 9,8H6A6,6 0 0,1 12,2Z" />
</svg>

<svg xmlns="http://www.w3.org/2000/svg" data-license="Apache License 2.0" data-source="Material Design" viewBox="0 0 24 24">
  <path d="M10 19h3v3h-3v-3m2-17c5.4.2 7.7 5.6 4.5 9.7-.8 1-2.2 1.6-2.8 2.5C13 15 13 16 13 17h-3c0-1.7 0-3 .7-4 .6-1 2-1.7 2.8-2.3C15.9 8.4 15.3 5.3 12 5a3 3 0 0 0-3 3H6a6 6 0 0 1 6-6Z"/>
</svg>
